X:114
T:Ploughboy. LIT.114, The
M:2/4
Q:1/4=120
L:1/8
B:Wm. Litten MS, 1802
Z:Village Music Project 2017 Anne Wride
K:D
a/g/ | fa df | B2 Ad | ce gf |fe2 a/g/ |
fa df | B2 Ad | ce gc | d3 !fine! ||
f | eG GG | GF2 f | eG GG | F3f | eG GG | GF2A | de fg | a3 a/g/ |
fa df |B2 Ad | ce gf | fe2 a/g/ | fa df | B2 Ad | ce gc | d3 b/a/ |
^gg gg | aA2a | ^gg gg | a3 a | ^gg gg | ae fc | dB eE | A3 !D.C.! |]

